public/images/sponsors/Bosch.svg

<svg fill="none" height="86" viewBox="0 0 172 86" width="172" xmlns="http://www.w3.org/2000/svg"><path d="m27.6586 27c-8.6578 0-15.6586 7.0819-15.6586 15.84s7.0008 15.84 15.6586 15.84 15.6586-7.0819 15.6586-15.84c.0415-8.7581-7.0008-15.84-15.6586-15.84zm0 30.2133c-7.8293 0-14.2087-6.4533-14.2087-14.3733s6.3794-14.3733 14.2087-14.3733 14.2088 6.4533 14.2088 14.3733-6.3795 14.3733-14.2088 14.3733z" fill="#606061"/><path d="m34.1625 32.9504h-1.077v5.4477h-10.7705v-5.4477h-1.1185c-3.1897 2.1372-5.261 5.7829-5.261 9.8896 0 4.1485 2.1127 7.7523 5.261 9.8895h1.1185v-5.4476h10.7705v5.4476h1.077c3.1897-2.1372 5.261-5.741 5.261-9.8895 0-4.1067-2.1127-7.7524-5.261-9.8896zm-13.3388 17.6419c-2.1541-1.9276-3.4383-4.7352-3.4383-7.7523 0-3.0172 1.2842-5.8248 3.4383-7.7524zm12.2618-4.7771h-10.7705v-5.9505h10.7705zm1.4498 4.7771v-3.2685-8.9257-3.2686c2.1541 1.9276 3.4383 4.7352 3.4383 7.7524 0 2.9752-1.2842 5.7409-3.4383 7.7104z" fill="#606061"/><g clip-rule="evenodd" fill="#ea0016" fill-rule="evenodd"><path d="m74.9361 42.379s3.0142-1.0057 3.0142-4.2743c0-3.8552-2.8395-5.7409-6.7711-5.7409h-10.2222v20.9104h11.1396c3.4074 0 6.8147-2.3047 6.8147-5.8247-.0436-4.1905-3.9752-5.0705-3.9752-5.0705zm-8.6496-5.699h3.9753c1.2232 0 2.0532.7962 2.0532 1.9695 0 .9219-.7863 1.9276-2.1842 1.9276h-3.8879v-3.8971zm4.019 12.1942h-3.9753v-4.1066h3.8879c1.9658 0 2.8832.8381 2.8832 2.0533-.0437 1.5086-1.1795 2.0533-2.7958 2.0533z"/><path d="m90.6629 31.8191c-6.2905 0-10.0037 4.819-10.0037 10.9371 0 6.16 3.7132 10.9791 10.0037 10.9791 6.3343 0 10.0041-4.8191 10.0041-10.9791.043-6.1181-3.6261-10.9371-10.0041-10.9371zm0 16.9295c-3.1016 0-4.6305-2.64-4.6305-5.9505 0-3.2685 1.5289-5.9504 4.6305-5.9504s4.6743 2.64 4.6743 5.9504c0 3.2686-1.5727 5.9505-4.6743 5.9505z"/><path d="m112.33 40.5352-.786-.1676c-1.879-.3772-3.32-.8381-3.32-2.0953 0-1.3828 1.398-1.9276 2.665-1.9276 1.834 0 3.407.88 4.455 1.9276l3.364-3.2266c-1.529-1.6762-4.063-3.2686-7.95-3.2686-4.544.0419-8.038 2.5143-8.038 6.621 0 3.7295 2.839 5.6152 6.246 6.2857l.787.1676c2.839.5866 3.888 1.0057 3.888 2.3047 0 1.2153-1.18 2.0534-2.927 2.0534-2.141 0-4.063-.88-5.504-2.6819l-3.495 3.2685c1.922 2.1791 4.325 3.9391 9.086 3.9391 4.107 0 8.431-2.221 8.431-6.8305-.043-4.819-3.8-5.7409-6.902-6.3695z"/><path d="m131.333 48.7485c-2.403 0-4.936-1.9277-4.936-6.0762 0-3.7296 2.315-5.8248 4.761-5.8248 1.922 0 3.058.88 3.976 2.3467l4.412-2.8076c-2.185-3.1848-4.806-4.5258-8.388-4.5258-6.596 0-10.135 4.9029-10.135 10.8115 0 6.2019 3.976 11.1047 10.092 11.1047 4.324 0 6.378-1.4666 8.605-4.5257l-4.455-2.8914c-.874 1.3828-1.835 2.3886-3.932 2.3886z"/><path d="m154.179 32.322v7.7105h-6.596v-7.7105h-5.723v20.9105h5.723v-8.2552h6.596v8.2552h5.767v-20.9105z"/></g></svg>

<svg width="172" height="86" viewBox="0 0 172 86" fill="none" xmlns="http://www.w3.org/2000/svg">
<path d="M27.6586 27C19.0008 27 12 34.0819 12 42.84C12 51.5981 19.0008 58.68 27.6586 58.68C36.3164 58.68 43.3172 51.5981 43.3172 42.84C43.3587 34.0819 36.3164 27 27.6586 27ZM27.6586 57.2133C19.8293 57.2133 13.4499 50.76 13.4499 42.84C13.4499 34.92 19.8293 28.4667 27.6586 28.4667C35.4879 28.4667 41.8674 34.92 41.8674 42.84C41.8674 50.76 35.4879 57.2133 27.6586 57.2133Z" fill="#606061"/>
<path d="M34.1625 32.9504H33.0855V38.3981H22.315V32.9504H21.1965C18.0068 35.0876 15.9355 38.7333 15.9355 42.84C15.9355 46.9885 18.0482 50.5923 21.1965 52.7295H22.315V47.2819H33.0855V52.7295H34.1625C37.3522 50.5923 39.4235 46.9885 39.4235 42.84C39.4235 38.7333 37.3108 35.0876 34.1625 32.9504ZM20.8237 50.5923C18.6696 48.6647 17.3854 45.8571 17.3854 42.84C17.3854 39.8228 18.6696 37.0152 20.8237 35.0876V50.5923ZM33.0855 45.8152H22.315V39.8647H33.0855V45.8152ZM34.5353 50.5923V47.3238V38.3981V35.1295C36.6894 37.0571 37.9736 39.8647 37.9736 42.8819C37.9736 45.8571 36.6894 48.6228 34.5353 50.5923Z" fill="#606061"/>
<path fill-rule="evenodd" clip-rule="evenodd" d="M74.9361 42.379C74.9361 42.379 77.9503 41.3733 77.9503 38.1047C77.9503 34.2495 75.1108 32.3638 71.1792 32.3638H60.957V53.2742H72.0966C75.504 53.2742 78.9113 50.9695 78.9113 47.4495C78.8677 43.259 74.9361 42.379 74.9361 42.379ZM66.2865 36.68H70.2618C71.485 36.68 72.315 37.4762 72.315 38.6495C72.315 39.5714 71.5287 40.5771 70.1308 40.5771H66.2429V36.68H66.2865ZM70.3055 48.8742H66.3302V44.7676H70.2181C72.1839 44.7676 73.1013 45.6057 73.1013 46.8209C73.0576 48.3295 71.9218 48.8742 70.3055 48.8742Z" fill="#EA0016"/>
<path fill-rule="evenodd" clip-rule="evenodd" d="M90.6629 31.8191C84.3724 31.8191 80.6592 36.6381 80.6592 42.7562C80.6592 48.9162 84.3724 53.7353 90.6629 53.7353C96.9972 53.7353 100.667 48.9162 100.667 42.7562C100.71 36.6381 97.0409 31.8191 90.6629 31.8191ZM90.6629 48.7486C87.5613 48.7486 86.0324 46.1086 86.0324 42.7981C86.0324 39.5296 87.5613 36.8477 90.6629 36.8477C93.7645 36.8477 95.3372 39.4877 95.3372 42.7981C95.3372 46.0667 93.7645 48.7486 90.6629 48.7486Z" fill="#EA0016"/>
<path fill-rule="evenodd" clip-rule="evenodd" d="M112.33 40.5352L111.544 40.3676C109.665 39.9904 108.224 39.5295 108.224 38.2723C108.224 36.8895 109.622 36.3447 110.889 36.3447C112.723 36.3447 114.296 37.2247 115.344 38.2723L118.708 35.0457C117.179 33.3695 114.645 31.7771 110.758 31.7771C106.214 31.819 102.72 34.2914 102.72 38.3981C102.72 42.1276 105.559 44.0133 108.966 44.6838L109.753 44.8514C112.592 45.438 113.641 45.8571 113.641 47.1561C113.641 48.3714 112.461 49.2095 110.714 49.2095C108.573 49.2095 106.651 48.3295 105.21 46.5276L101.715 49.7961C103.637 51.9752 106.04 53.7352 110.801 53.7352C114.908 53.7352 119.232 51.5142 119.232 46.9047C119.189 42.0857 115.432 41.1638 112.33 40.5352Z" fill="#EA0016"/>
<path fill-rule="evenodd" clip-rule="evenodd" d="M131.333 48.7485C128.93 48.7485 126.397 46.8208 126.397 42.6723C126.397 38.9427 128.712 36.8475 131.158 36.8475C133.08 36.8475 134.216 37.7275 135.134 39.1942L139.546 36.3866C137.361 33.2018 134.74 31.8608 131.158 31.8608C124.562 31.8608 121.023 36.7637 121.023 42.6723C121.023 48.8742 124.999 53.777 131.115 53.777C135.439 53.777 137.493 52.3104 139.72 49.2513L135.265 46.3599C134.391 47.7427 133.43 48.7485 131.333 48.7485Z" fill="#EA0016"/>
<path fill-rule="evenodd" clip-rule="evenodd" d="M154.179 32.322V40.0325H147.583V32.322H141.86V53.2325H147.583V44.9773H154.179V53.2325H159.946V32.322H154.179Z" fill="#EA0016"/>
</svg>
